src/icons/mxml.svg

<svg viewBox="0 0 24 24" xmlns="http://www.w3.org/2000/svg">
  <path
    d="M13 9H18.5L13 3.5V9ZM6 2H14L20 8V20C20 20.5304 19.7893 21.0391 19.4142 21.4142C19.0391 21.7893 18.5304 22 18 22H6C5.46957 22 4.96086 21.7893 4.58579 21.4142C4.21071 21.0391 4 20.5304 4 20V4C4 2.89 4.89 2 6 2ZM6.12 15.5L9.86 19.24L11.28 17.83L8.95 15.5L11.28 13.17L9.86 11.76L6.12 15.5ZM17.28 15.5L13.54 11.76L12.12 13.17L14.45 15.5L12.12 17.83L13.54 19.24L17.28 15.5Z"
    fill="#FFA726"
  />
</svg>

<svg viewBox="0 0 24 24" xmlns="http://www.w3.org/2000/svg">
  <path
    d="M13 9h5.5L13 3.5V9M6 2h8l6 6v12a2 2 0 0 1-2 2H6a2 2 0 0 1-2-2V4c0-1.11.89-2 2-2m.12 13.5 3.74 3.74 1.42-1.41-2.33-2.33 2.33-2.33-1.42-1.41-3.74 3.74m11.16 0-3.74-3.74-1.42 1.41 2.33 2.33-2.33 2.33 1.42 1.41 3.74-3.74z"
    fill="#ffa726"
  />
</svg>
